X: 37466
T: Slicing The Toast
R: reel
M: 4/4
K: Dmajor
DFAF G2 BG|FAAF E2 DE|FAAF G2 BG|ABde fd d2:|
faaf d2 fd|efed cA A2|fd (3dcd efge|abag fd d2|
faaf d2 fd|efed cA A2|ABcd efed|cAGE ED D2|

